svg/coder.svg

<svg width="45" height="31" viewBox="0 0 45 31" fill="none" xmlns="http://www.w3.org/2000/svg">
<g clip-path="url(#clip0_5345_61190)">
<path d="M42.9532 13.469C42.0762 13.469 41.4914 12.9612 41.4914 11.919V5.93276C41.4914 2.1112 39.8966 0 35.7767 0H33.8629V4.03534H34.4477C36.069 4.03534 36.8399 4.91724 36.8399 6.49396V11.7854C36.8399 14.0836 37.5309 15.019 39.046 15.5C37.5309 15.9544 36.8399 16.9164 36.8399 19.2146C36.8399 20.5242 36.8399 21.8336 36.8399 23.1432C36.8399 24.2388 36.8399 25.3078 36.5475 26.4034C36.2552 27.419 35.7767 28.381 35.1122 29.2094C34.7401 29.6906 34.3148 30.0914 33.8364 30.4656V31H35.7501C39.87 31 41.4649 28.8888 41.4649 25.0672V19.081C41.4649 18.012 42.023 17.531 42.9267 17.531H44.0165V13.4956H42.9532V13.469Z" fill="black"/>
<path d="M29.929 6.09391H24.0282C23.8953 6.09391 23.7891 5.98701 23.7891 5.85339V5.39909C23.7891 5.26547 23.8953 5.15857 24.0282 5.15857H29.9556C30.0884 5.15857 30.1948 5.26547 30.1948 5.39909V5.85339C30.1948 5.98701 30.0618 6.09391 29.929 6.09391Z" fill="black"/>
<path d="M30.9388 11.8661H26.6328C26.4999 11.8661 26.3936 11.7591 26.3936 11.6255V11.1713C26.3936 11.0377 26.4999 10.9307 26.6328 10.9307H30.9388C31.0717 10.9307 31.1779 11.0377 31.1779 11.1713V11.6255C31.1779 11.7325 31.0717 11.8661 30.9388 11.8661Z" fill="black"/>
<path d="M32.6401 8.97996H24.0282C23.8953 8.97996 23.7891 8.87306 23.7891 8.73944V8.28513C23.7891 8.1515 23.8953 8.04462 24.0282 8.04462H32.6135C32.7464 8.04462 32.8528 8.1515 32.8528 8.28513V8.73944C32.8528 8.84634 32.773 8.97996 32.6401 8.97996Z" fill="black"/>
<path d="M17.1972 7.40258C17.7819 7.40258 18.3668 7.45604 18.9249 7.58966V6.49396C18.9249 4.94396 19.7223 4.03534 21.3171 4.03534H21.9019V0H19.9881C15.8682 0 14.2734 2.1112 14.2734 5.93276V7.91034C15.2037 7.58966 16.1872 7.40258 17.1972 7.40258Z" fill="black"/>
<path d="M34.4476 21.94C34.0223 18.546 31.4175 15.7132 28.0684 15.0718C27.1381 14.8848 26.2078 14.858 25.3041 15.0184C25.2775 15.0184 25.2775 14.9916 25.2509 14.9916C23.789 11.9184 20.6527 9.88733 17.2504 9.88733C13.8481 9.88733 10.7383 11.865 9.24981 14.9382C9.22324 14.9382 9.22324 14.965 9.19665 14.965C8.23978 14.858 7.2829 14.9114 6.32602 15.152C3.03011 15.9537 0.531599 18.733 0.0797398 22.1002C0.0265799 22.4476 0 22.795 0 23.1158C0 24.1312 0.691078 25.0666 1.70111 25.2002C2.95037 25.3874 4.04014 24.4252 4.01357 23.196C4.01357 23.0088 4.01357 22.795 4.04014 22.608C4.25279 20.8976 5.5552 19.4546 7.25631 19.0537C7.78792 18.92 8.31951 18.8934 8.82454 18.9736C10.4459 19.1874 12.0407 18.3588 12.7318 16.9158C13.2368 15.8468 14.0342 14.9114 15.0974 14.4037C16.2669 13.8425 17.5959 13.7624 18.8186 14.19C20.0944 14.6442 21.0513 15.6062 21.6361 16.8088C22.2474 17.9848 22.5397 18.8132 23.8422 18.9736C24.3738 19.0537 25.8622 19.027 26.4205 19.0002C27.5102 19.0002 28.6 19.3744 29.3708 20.1494C29.8758 20.6838 30.2479 21.352 30.4074 22.1002C30.6466 23.3028 30.3543 24.5054 29.6366 25.414C29.1316 26.0554 28.4405 26.5364 27.6697 26.7502C27.2975 26.8572 26.9254 26.8838 26.5533 26.8838C26.3407 26.8838 26.0484 26.8838 25.7028 26.8838C24.6396 26.8838 22.3803 26.8838 20.6791 26.8838C19.5097 26.8838 18.5793 25.9486 18.5793 24.7726V20.8175V16.9425C18.5793 16.6218 18.3136 16.3546 17.9946 16.3546H17.1706C15.5492 16.3812 14.2468 18.1986 14.2468 20.1226C14.2468 22.0468 14.2468 27.1512 14.2468 27.1512C14.2468 29.2356 15.9213 30.9192 17.9946 30.9192C17.9946 30.9192 27.2179 30.8925 27.3507 30.8925C29.4771 30.6787 31.444 29.583 32.773 27.8994C34.1021 26.2692 34.7134 24.1312 34.4476 21.94Z" fill="black"/>
</g>
<defs>
<clipPath id="clip0_5345_61190">
<rect width="44.2857" height="31" fill="white"/>
</clipPath>
</defs>
</svg>

<svg xmlns="http://www.w3.org/2000/svg" width="45" height="31" fill="none"><g fill="#000" clip-path="url(#a)"><path d="M42.953 13.469c-.877 0-1.462-.508-1.462-1.55V5.933C41.491 2.11 39.897 0 35.777 0h-1.914v4.035h.585c1.621 0 2.392.882 2.392 2.459v5.291c0 2.299.69 3.234 2.206 3.715-1.515.454-2.206 1.416-2.206 3.715v3.928c0 1.096 0 2.165-.293 3.26a8.026 8.026 0 0 1-1.435 2.806 7.113 7.113 0 0 1-1.276 1.257V31h1.914c4.12 0 5.715-2.111 5.715-5.933v-5.986c0-1.069.558-1.55 1.462-1.55h1.09v-4.035h-1.064v-.027ZM29.929 6.094h-5.9a.239.239 0 0 1-.24-.24v-.455c0-.134.106-.24.24-.24h5.927c.132 0 .239.106.239.24v.454c0 .134-.133.24-.266.24Zm1.01 5.772h-4.306a.239.239 0 0 1-.24-.24v-.455a.24.24 0 0 1 .24-.24h4.306c.133 0 .239.107.239.24v.455c0 .107-.106.24-.24.24ZM32.64 8.98h-8.612a.239.239 0 0 1-.239-.24v-.455c0-.133.106-.24.24-.24h8.585a.24.24 0 0 1 .239.24v.454c0 .107-.08.241-.213.241ZM17.197 7.403c.585 0 1.17.053 1.728.187V6.494c0-1.55.797-2.459 2.392-2.459h.585V0h-1.914c-4.12 0-5.715 2.111-5.715 5.933V7.91a8.968 8.968 0 0 1 2.924-.507Z"/><path d="M34.448 21.94c-.426-3.394-3.03-6.227-6.38-6.868a7.411 7.411 0 0 0-2.764-.054c-.026 0-.026-.026-.053-.026-1.462-3.074-4.598-5.105-8-5.105-3.403 0-6.513 1.978-8.001 5.051-.027 0-.027.027-.053.027a8.017 8.017 0 0 0-2.871.187A8.315 8.315 0 0 0 .08 22.1 6.8 6.8 0 0 0 0 23.116c0 1.015.691 1.95 1.701 2.084 1.25.187 2.34-.775 2.313-2.004 0-.187 0-.401.026-.588.213-1.71 1.515-3.153 3.216-3.554a3.91 3.91 0 0 1 1.569-.08c1.62.213 3.216-.615 3.907-2.058.505-1.07 1.302-2.005 2.365-2.512a4.862 4.862 0 0 1 3.722-.214c1.275.454 2.232 1.416 2.817 2.619.611 1.176.904 2.004 2.206 2.165.532.08 2.02.053 2.579.026 1.09 0 2.179.374 2.95 1.15a4.088 4.088 0 0 1 1.036 1.95c.24 1.203-.053 2.405-.77 3.314a3.84 3.84 0 0 1-1.967 1.336 3.986 3.986 0 0 1-1.117.134H20.68c-1.17 0-2.1-.935-2.1-2.111v-7.831a.591.591 0 0 0-.584-.587h-.824c-1.622.026-2.924 1.844-2.924 3.768v7.028a3.754 3.754 0 0 0 3.748 3.768l9.356-.027a7.96 7.96 0 0 0 5.422-2.993c1.33-1.63 1.94-3.768 1.675-5.959Z"/></g><defs><clipPath id="a"><path fill="#fff" d="M0 0h44.286v31H0z"/></clipPath></defs></svg>
